X: 64
T: McMahon's Reel
R: reel
Z: 2012 John Chambers <jc@trillian.mit.edu>
B: "100 Essential Irish Session Tunes" 1995 Dave Mallinson, ed.
M: 4/4
L: 1/8
K: G
E |\
"G"G3D "Em"EDEG | "Am"AGAB "D"d2Bd | "C"eged "G"BAGA | "A7"BAGE "D"EDDE |\
"G"GFGD "Em"EDEG | "Am"AGAB "D"d2Bd | "C"eged "Em"BAGA | "A7"BAGE "D"ED D :|
|: d |\
"Am"eaag "Em"efge | "Bm"dBBA B3d | "Em"eB~B2 eBgB | eBBA "Bm"B3d |\
"Am"eaag "Em"efge | "G"dBBA "G7"B3d | "C"eged "Em"BAGA | "A7"BAGE "D"ED D :|

%%sep 2 1 500
%%sep 1 1 500

